Hatter-kde-dark/actions/22/insert-text-frame.svg

<?xml version="1.0" encoding="UTF-8"?>
<svg viewBox="0 0 22 22" xmlns="http://www.w3.org/2000/svg">
 <defs id="defs3051">
  <style id="current-color-scheme" type="text/css">.ColorScheme-Text {
        color:#dedede;
      }</style>
 </defs>
 <path class="ColorScheme-Text" d="m3 2v1h-1v1h1v14h-1v1h1v1h1v-1h10v-1h-10v-14h14v10h1v-10h1v-1h-1v-1h-1v1h-14v-1h-1zm3 4v2h4v8h2v-8h4v-2h-10zm11 9v2h-2v1h2v2h1v-2h2v-1h-2v-2h-1z" fill="currentColor"/>
</svg>

<svg xmlns="http://www.w3.org/2000/svg" viewBox="0 0 22 22">
  <defs id="defs3051">
    <style type="text/css" id="current-color-scheme">
      .ColorScheme-Text {
        color:#dedede;
      }
      </style>
  </defs>
 <path 
     style="fill:currentColor;fill-opacity:1;stroke:none" 
     d="M 3 2 L 3 3 L 2 3 L 2 4 L 3 4 L 3 18 L 2 18 L 2 19 L 3 19 L 3 20 L 4 20 L 4 19 L 14 19 L 14 18 L 4 18 L 4 4 L 18 4 L 18 14 L 19 14 L 19 4 L 20 4 L 20 3 L 19 3 L 19 2 L 18 2 L 18 3 L 4 3 L 4 2 L 3 2 z M 6 6 L 6 8 L 10 8 L 10 16 L 12 16 L 12 8 L 16 8 L 16 6 L 6 6 z M 17 15 L 17 17 L 15 17 L 15 18 L 17 18 L 17 20 L 18 20 L 18 18 L 20 18 L 20 17 L 18 17 L 18 15 L 17 15 z "
     class="ColorScheme-Text"
     />
</svg>
